tools/download-figma-icons/icons/outlined-medium/worldwide.svg

<svg width="24" height="24" viewBox="0 0 24 24" fill="none" xmlns="http://www.w3.org/2000/svg">
<path fill-rule="evenodd" clip-rule="evenodd" d="M14.9242 22.0774C16.2614 20.099 17.1352 16.7458 17.2342 12.7499H22.4616C22.1451 17.192 19.0626 20.8745 14.9242 22.0774ZM1.53774 12.7499H6.76513C6.86413 16.7458 7.73786 20.099 9.07508 22.0774C4.93742 20.8745 1.85423 17.192 1.53774 12.7499ZM9.07508 1.92307C7.73786 3.90153 6.86413 7.25472 6.76513 11.2499H1.53774C1.85423 6.80847 4.93742 3.12605 9.07508 1.92307ZM8.26435 11.2499C8.41734 5.46977 10.2991 1.5001 12 1.5001C13.7002 1.5001 15.5819 5.46977 15.7349 11.2499H8.26435ZM12 22.4997C10.2991 22.4997 8.41734 18.5308 8.26435 12.7499H15.7349C15.5819 18.5308 13.7002 22.4997 12 22.4997ZM22.4616 11.2499H17.2342C17.1352 7.25472 16.2614 3.90153 14.9242 1.92307C19.0626 3.12605 22.1451 6.80847 22.4616 11.2499ZM12.0001 0C5.38301 0 0.000366203 5.38339 0.000366203 11.9998C0.000366203 18.6169 5.38301 23.9995 12.0001 23.9995C18.6165 23.9995 23.9999 18.6169 23.9999 11.9998C23.9999 5.38339 18.6165 0 12.0001 0Z" fill="black"/>
</svg>

<svg width="24" height="24" viewBox="0 0 24 24" fill="none" xmlns="http://www.w3.org/2000/svg"><path fill-rule="evenodd" clip-rule="evenodd" d="M14.924 22.077c1.337-1.978 2.211-5.331 2.31-9.327h5.228c-.317 4.442-3.4 8.125-7.538 9.327ZM1.538 12.75h5.227c.1 3.996.973 7.349 2.31 9.327-4.138-1.203-7.22-4.885-7.537-9.327ZM9.075 1.923c-1.337 1.979-2.21 5.332-2.31 9.327H1.538c.316-4.442 3.4-8.124 7.537-9.327Zm-.81 9.327C8.416 5.47 10.298 1.5 12 1.5c1.7 0 3.582 3.97 3.735 9.75h-7.47ZM12 22.5c-1.7 0-3.583-3.97-3.736-9.75h7.47C15.583 18.53 13.7 22.5 12 22.5Zm10.462-11.25h-5.228c-.099-3.995-.973-7.348-2.31-9.327 4.139 1.203 7.221 4.885 7.538 9.327ZM12 0C5.383 0 0 5.383 0 12s5.383 12 12 12c6.616 0 12-5.383 12-12S18.616 0 12 0Z" fill="currentColor"/></svg>
